communes/5742.svg

<?xml version="1.0" encoding="UTF-8" standalone="no"?>
<!-- Created with Inkscape (http://www.inkscape.org/) -->
<svg
   xmlns:dc="http://purl.org/dc/elements/1.1/"
   xmlns:cc="http://creativecommons.org/ns#"
   xmlns:rdf="http://www.w3.org/1999/02/22-rdf-syntax-ns#"
   xmlns:svg="http://www.w3.org/2000/svg"
   xmlns="http://www.w3.org/2000/svg"
   xmlns:xlink="http://www.w3.org/1999/xlink"
   xmlns:sodipodi="http://sodipodi.sourceforge.net/DTD/sodipodi-0.dtd"
   xmlns:inkscape="http://www.inkscape.org/namespaces/inkscape"
   width="500"
   height="627.35999"
   id="svg2"
   sodipodi:version="0.32"
   inkscape:version="0.46"
   version="1.0"
   sodipodi:docname="Wappen Agiez.svg"
   inkscape:output_extension="org.inkscape.output.svg.inkscape">
  <defs
     id="defs4">
    <inkscape:perspective
       sodipodi:type="inkscape:persp3d"
       inkscape:vp_x="0 : 526.18109 : 1"
       inkscape:vp_y="0 : 1000 : 0"
       inkscape:vp_z="744.09448 : 526.18109 : 1"
       inkscape:persp3d-origin="372.04724 : 350.78739 : 1"
       id="perspective10" />
    <inkscape:perspective
       sodipodi:type="inkscape:persp3d"
       inkscape:vp_x="0 : 420.94501 : 1"
       inkscape:vp_y="0 : 1000 : 0"
       inkscape:vp_z="595.27502 : 420.94501 : 1"
       inkscape:persp3d-origin="297.63751 : 280.63 : 1"
       id="perspective2512" />
    <radialGradient
       r="300"
       fy="579.93323"
       fx="858.04236"
       cy="579.93323"
       cx="858.04236"
       gradientTransform="matrix(1.21503,0,0,1.26667,-839.192,-490.489)"
       gradientUnits="userSpaceOnUse"
       id="radialGradient3236"
       xlink:href="#linearGradient2893"
       inkscape:collect="always" />
    <linearGradient
       id="linearGradient2955">
      <stop
         id="stop2965"
         offset="0"
         style="stop-color: white; stop-opacity: 0;" />
      <stop
         id="stop2959"
         offset="1"
         style="stop-color: black; stop-opacity: 0.645833;" />
    </linearGradient>
    <linearGradient
       id="linearGradient2893">
      <stop
         id="stop2895"
         offset="0"
         style="stop-color: rgb(255, 255, 255); stop-opacity: 0.313726;" />
      <stop
         style="stop-color: rgb(255, 255, 255); stop-opacity: 0.25098;"
         offset="0.19"
         id="stop2897" />
      <stop
         id="stop2901"
         offset="0.60000002"
         style="stop-color: rgb(107, 107, 107); stop-opacity: 0.12549;" />
      <stop
         id="stop2899"
         offset="1"
         style="stop-color: rgb(0, 0, 0); stop-opacity: 0.12549;" />
    </linearGradient>
    <inkscape:perspective
       id="perspective28"
       inkscape:persp3d-origin="301.5 : 254.33333 : 1"
       inkscape:vp_z="603 : 381.5 : 1"
       inkscape:vp_y="0 : 1000 : 0"
       inkscape:vp_x="0 : 381.5 : 1"
       sodipodi:type="inkscape:persp3d" />
    <radialGradient
       inkscape:collect="always"
       xlink:href="#linearGradient2893"
       id="radialGradient2552"
       gradientUnits="userSpaceOnUse"
       gradientTransform="matrix(1.21503,0,0,1.26667,-839.192,-490.489)"
       cx="858.04236"
       cy="579.93323"
       fx="858.04236"
       fy="579.93323"
       r="300" />
    <radialGradient
       inkscape:collect="always"
       xlink:href="#linearGradient2893"
       id="radialGradient2555"
       gradientUnits="userSpaceOnUse"
       gradientTransform="matrix(1.21503,0,0,1.26667,-1543.5491,-705.3411)"
       cx="858.04236"
       cy="579.93323"
       fx="858.04236"
       fy="579.93323"
       r="300" />
  </defs>
  <sodipodi:namedview
     id="base"
     pagecolor="#ffffff"
     bordercolor="#666666"
     borderopacity="1.0"
     inkscape:pageopacity="0.0"
     inkscape:pageshadow="2"
     inkscape:zoom="0.35"
     inkscape:cx="8.5714286"
     inkscape:cy="587.6457"
     inkscape:document-units="px"
     inkscape:current-layer="layer1"
     showgrid="false"
     inkscape:window-width="1280"
     inkscape:window-height="750"
     inkscape:window-x="-8"
     inkscape:window-y="-8" />
  <metadata
     id="metadata7">
    <rdf:RDF>
      <cc:Work
         rdf:about="">
        <dc:format>image/svg+xml</dc:format>
        <dc:type
           rdf:resource="http://purl.org/dc/dcmitype/StillImage" />
      </cc:Work>
    </rdf:RDF>
  </metadata>
  <g
     inkscape:label="Ebene 1"
     inkscape:groupmode="layer"
     id="layer1"
     transform="translate(704.35714,59.215287)">
    <g
       id="g2577"
       transform="matrix(0.7960199,0,0,0.7960199,-133.67484,121.80966)">
      <path
         d="M -702.85714,-213.3521 L -702.85714,245.5179 C -702.85714,411.8289 -568.54314,546.6489 -402.85714,546.6489 C -237.17014,546.6489 -102.85714,411.8289 -102.85714,245.5179 L -102.85714,-213.3521 L -702.85714,-213.3521 z"
         id="path3357"
         style="fill:#ffffff" />
      <path
         d="M -402.85914,546.6459 C -237.17214,546.6459 -102.85914,411.8259 -102.85914,245.5149 L -102.85914,-213.3521 L -402.85914,-213.3521 L -402.85914,546.6459 L -402.85914,546.6459 z"
         id="path3359"
         style="fill:#e20909" />
      <path
         id="path2487"
         d="M -198.87514,356.6349 L -402.85914,123.5919 L -402.85914,166.6409 L -223.41714,377.8029 L -223.40714,377.7939 C -220.33814,381.1359 -212.50714,379.2079 -205.79714,373.4219 C -199.08714,367.6339 -196.03114,360.1719 -198.88614,356.6449 L -198.87514,356.6349 z"
         style="fill:#ffffff" />
      <path
         id="path2489"
         d="M -402.85914,123.5919 L -565.06114,-61.7171 C -568.00514,-65.1301 -574.50514,-64.3491 -579.58214,-59.9711 C -584.65914,-55.5931 -586.38614,-49.2781 -583.44214,-45.8641 L -402.85914,166.6399 L -402.85914,123.5919 z"
         style="fill:#e20909" />
      <path
         id="path2491"
         d="M -579.58114,-59.9711 C -584.65714,-55.5931 -586.38514,-49.2781 -583.44114,-45.8641 L -223.41714,377.8029 L -223.40714,377.7939 C -220.33814,381.1359 -212.50714,379.2079 -205.79714,373.4219 C -199.08714,367.6339 -196.03114,360.1719 -198.88614,356.6449 L -198.87514,356.6349 L -565.06114,-61.7171 C -568.00414,-65.1301 -574.50514,-64.3491 -579.58114,-59.9711 z"
         style="fill:none;stroke:#000000;stroke-width:3;stroke-linecap:round;stroke-linejoin:round" />
      <path
         id="path2493"
         d="M -570.61414,-49.5741 C -638.84814,9.2749 -672.14714,71.5699 -672.14714,71.5699 C -654.50114,52.3219 -598.72514,12.2749 -580.25314,1.3809 C -561.78214,-9.5141 -556.63014,-10.9361 -549.54214,-5.9731 C -549.54214,-5.9731 -546.97814,-11.0341 -541.47114,-15.7841 C -535.96414,-20.5331 -530.58114,-22.3261 -530.58114,-22.3261 C -534.44814,-30.0661 -532.28514,-34.9541 -518.79514,-51.6241 C -505.30514,-68.2941 -457.50014,-117.5831 -435.86914,-132.2101 C -435.87114,-132.2101 -502.38114,-108.4221 -570.61414,-49.5741 z"
         style="fill:#e20909;stroke:#000000;stroke-width:3;stroke-linecap:round;stroke-linejoin:round" />
      <path
         id="path2497"
         d="M -226.13714,-59.9711 C -231.21314,-64.3491 -237.71314,-65.1301 -240.65714,-61.7171 L -402.85914,123.5919 L -402.85914,166.6399 L -222.27714,-45.8641 C -219.33414,-49.2771 -221.06114,-55.5931 -226.13714,-59.9711 z"
         style="fill:#ffffff" />
      <path
         id="path2499"
         d="M -402.85914,123.5919 L -606.84314,356.6349 L -606.83314,356.6449 C -609.68714,360.1719 -606.63114,367.6339 -599.92114,373.4219 C -593.21214,379.2079 -585.38014,381.1359 -582.31014,377.7939 L -582.30014,377.8029 L -402.85814,166.6399 L -402.85814,123.5919 L -402.85914,123.5919 z"
         style="fill:#e20909" />
      <path
         id="path2501"
         d="M -226.13714,-59.9711 C -221.06114,-55.5931 -219.33314,-49.2781 -222.27714,-45.8641 L -582.30114,377.8029 L -582.31114,377.7939 C -585.38114,381.1359 -593.21214,379.2079 -599.92214,373.4219 C -606.63214,367.6339 -609.68814,360.1719 -606.83414,356.6449 L -606.84414,356.6349 L -240.65714,-61.7171 C -237.71314,-65.1301 -231.21314,-64.3491 -226.13714,-59.9711 z"
         style="fill:none;stroke:#000000;stroke-width:3;stroke-linecap:round;stroke-linejoin:round" />
      <path
         id="path2503"
         d="M -235.10314,-49.5741 C -166.87114,9.2749 -133.57114,71.5699 -133.57114,71.5699 C -151.21714,52.3219 -206.99314,12.2749 -225.46414,1.3809 C -243.93614,-9.5141 -249.08814,-10.9361 -256.17614,-5.9731 C -256.17614,-5.9731 -258.74014,-11.0341 -264.24614,-15.7841 C -269.75314,-20.5331 -275.13614,-22.3261 -275.13614,-22.3261 C -271.26914,-30.0661 -273.43214,-34.9541 -286.92214,-51.6241 C -300.41114,-68.2941 -348.21714,-117.5831 -369.84814,-132.2101 C -369.84714,-132.2101 -303.33714,-108.4221 -235.10314,-49.5741 z"
         style="fill:#ffffff;stroke:#000000;stroke-width:3;stroke-linecap:round;stroke-linejoin:round" />
      <line
         style="fill:none;stroke:#000000;stroke-width:3"
         id="line2631"
         x1="-402.85916"
         y1="-213.3521"
         x2="-402.85916"
         y2="546.64587" />
      <path
         style="fill:none;fill-opacity:1;stroke:#000000;stroke-width:3;stroke-miterlimit:4;stroke-dasharray:none;stroke-opacity:1"
         d="M -702.85714,-213.3521 L -702.85714,245.51584 C -702.85714,411.82644 -568.5426,546.6479 -402.85721,546.6479 C -237.17174,546.6479 -102.85714,411.82644 -102.85714,245.51584 L -102.85714,-213.3521 L -702.85714,-213.3521 z"
         id="path3239" />
    </g>
  </g>
</svg>

<?xml version="1.0" encoding="UTF-8"?>
<svg version="1.0" viewBox="0 0 500 627.36" xmlns="http://www.w3.org/2000/svg" xmlns:cc="http://creativecommons.org/ns#" xmlns:dc="http://purl.org/dc/elements/1.1/" xmlns:rdf="http://www.w3.org/1999/02/22-rdf-syntax-ns#" xmlns:xlink="http://www.w3.org/1999/xlink">
<metadata>
<rdf:RDF>
<cc:Work rdf:about="">
<dc:format>image/svg+xml</dc:format>
<dc:type rdf:resource="http://purl.org/dc/dcmitype/StillImage"/>
</cc:Work>
</rdf:RDF>
</metadata>
<g transform="translate(704.36 59.215)">
<g transform="matrix(.79602 0 0 .79602 -133.67 121.81)">
<path d="m-702.86-213.35v458.87c0 166.31 134.31 301.13 300 301.13 165.69 0 300-134.82 300-301.13v-458.87h-600z" fill="#fff"/>
<path d="m-402.86 546.65c165.69 0 300-134.82 300-301.13v-458.87h-300v760z" fill="#e20909"/>
<path d="m-198.88 356.63-203.98-233.04v43.049l179.44 211.16 0.01-9e-3c3.069 3.342 10.9 1.414 17.61-4.372 6.71-5.788 9.766-13.25 6.911-16.777l0.011-0.01z" fill="#fff"/>
<path d="m-402.86 123.59-162.2-185.31c-2.944-3.413-9.444-2.632-14.521 1.746s-6.804 10.693-3.86 14.107l180.58 212.5v-43.048z" fill="#e20909"/>
<path d="m-579.58-59.971c-5.076 4.378-6.804 10.693-3.86 14.107l360.02 423.67 0.01-9e-3c3.069 3.342 10.9 1.414 17.61-4.372 6.71-5.788 9.766-13.25 6.911-16.777l0.011-0.01-366.19-418.35c-2.943-3.413-9.444-2.632-14.52 1.746z" fill="none" stroke="#000" stroke-linecap="round" stroke-linejoin="round" stroke-width="3"/>
<path d="m-570.61-49.574c-68.234 58.849-101.53 121.14-101.53 121.14 17.646-19.248 73.422-59.295 91.894-70.189 18.471-10.895 23.623-12.317 30.711-7.354 0 0 2.564-5.061 8.071-9.811 5.507-4.749 10.89-6.542 10.89-6.542-3.867-7.74-1.704-12.628 11.786-29.298s61.295-65.959 82.926-80.586c-2e-3 0-66.512 23.788-134.74 82.636z" fill="#e20909" stroke="#000" stroke-linecap="round" stroke-linejoin="round" stroke-width="3"/>
<path d="m-226.14-59.971c-5.076-4.378-11.576-5.159-14.52-1.746l-162.2 185.31v43.048l180.58-212.5c2.943-3.413 1.216-9.729-3.86-14.107z" fill="#fff"/>
<path d="m-402.86 123.59-203.98 233.04 0.01 0.01c-2.854 3.527 0.202 10.989 6.912 16.777 6.709 5.786 14.541 7.714 17.611 4.372l0.01 9e-3 179.44-211.16v-43.048h-1e-3z" fill="#e20909"/>
<path d="m-226.14-59.971c5.076 4.378 6.804 10.693 3.86 14.107l-360.02 423.67-0.01-9e-3c-3.07 3.342-10.901 1.414-17.611-4.372-6.71-5.788-9.766-13.25-6.912-16.777l-0.01-0.01 366.19-418.35c2.944-3.413 9.444-2.632 14.52 1.746z" fill="none" stroke="#000" stroke-linecap="round" stroke-linejoin="round" stroke-width="3"/>
<path d="m-235.1-49.574c68.232 58.849 101.53 121.14 101.53 121.14-17.646-19.248-73.422-59.295-91.893-70.189-18.472-10.895-23.624-12.317-30.712-7.354 0 0-2.564-5.061-8.07-9.811-5.507-4.749-10.89-6.542-10.89-6.542 3.867-7.74 1.704-12.628-11.786-29.298-13.489-16.67-61.295-65.959-82.926-80.586 1e-3 0 66.511 23.788 134.74 82.636z" fill="#fff" stroke="#000" stroke-linecap="round" stroke-linejoin="round" stroke-width="3"/>
<line x1="-402.86" x2="-402.86" y1="-213.35" y2="546.65" fill="none" stroke="#000" stroke-width="3"/>
<path d="m-702.86-213.35v458.87c0 166.31 134.31 301.13 300 301.13 165.69 0 300-134.82 300-301.13v-458.87h-600z" fill="none" stroke="#000" stroke-width="3"/>
</g>
</g>
</svg>
